src/assets/images/prototype/produits-utilises/1-lessive.svg

<svg width="262" height="658" viewBox="0 0 262 658" fill="none" xmlns="http://www.w3.org/2000/svg">
<path d="M101.162 42.5L93.6621 74C71.6622 104.667 23.9623 192.7 9.16233 299.5C-5.63767 406.3 9.66233 574 19.1623 644.5C124.763 664.1 215.496 652.667 247.662 644.5C253.329 582.167 263.262 430.2 257.662 321C252.062 211.8 207.329 110.833 185.662 74L175.662 42.5" stroke="#E0E0E0" stroke-width="5" stroke-dasharray="10 10"/>
<path d="M104.164 42V3C113.164 3 134.064 3 145.664 3C157.264 3 169.497 3 174.164 3V42" stroke="#E0E0E0" stroke-width="5" stroke-dasharray="10 10"/>
</svg>

<svg width="262" height="658" fill="none" xmlns="http://www.w3.org/2000/svg"><path d="M101.162 42.5l-7.5 31.5c-22 30.667-69.7 118.7-84.5 225.5-14.8 106.8.5 274.5 10 345 105.601 19.6 196.334 8.167 228.5 0 5.667-62.333 15.6-214.3 10-323.5-5.6-109.2-50.333-210.167-72-247l-10-31.5m-71.498-.5V3h70v39" stroke="#E0E0E0" stroke-width="5" stroke-dasharray="10 10"/></svg>
